assets/generic.svg

<svg fill="none" height="694" viewBox="0 0 1000 694" width="1000" xmlns="http://www.w3.org/2000/svg" xmlns:xlink="http://www.w3.org/1999/xlink"><clipPath id="a"><path d="m365.741 212.733h268.518v268.229h-268.518z"/></clipPath><path d="m0 0h1000v693.695h-1000z" fill="#c4c4c4"/><g clip-path="url(#a)" fill="#979797"><path d="m629.63 240.481h-259.259c-2.556 0-4.63 2.067-4.63 4.625v203.484c0 2.557 2.074 4.624 4.63 4.624h259.259c2.556 0 4.63-2.067 4.63-4.624v-203.484c0-2.558-2.074-4.625-4.63-4.625zm-4.63 203.484h-250v-194.235h250z"/><path d="m439.816 342.861c14.217 0 25.782-11.552 25.782-25.75 0-14.207-11.565-25.759-25.782-25.759-14.218 0-25.783 11.552-25.783 25.755 0 14.202 11.565 25.754 25.783 25.754zm0-42.26c9.111 0 16.523 7.409 16.523 16.506 0 9.096-7.412 16.505-16.523 16.505s-16.524-7.404-16.524-16.501c0-9.096 7.413-16.51 16.524-16.51z"/><path d="m398.148 425.467c1.084 0 2.176-.38 3.056-1.152l75.523-66.419 47.694 47.638c1.811 1.809 4.736 1.809 6.547 0 1.81-1.808 1.81-4.731 0-6.539l-22.255-22.23 42.505-46.497 52.134 47.741c1.884 1.725 4.815 1.595 6.542-.287 1.726-1.882 1.601-4.81-.287-6.535l-55.556-50.871c-.907-.828-2.116-1.239-3.333-1.211-1.227.055-2.385.596-3.213 1.503l-45.343 49.608-21.958-21.935c-1.732-1.725-4.5-1.812-6.334-.203l-78.782 69.291c-1.921 1.688-2.106 4.611-.417 6.53.917 1.04 2.195 1.568 3.477 1.568z"/></g></svg>

<svg width="1000" height="694" viewBox="0 0 1000 694" fill="none" xmlns="http://www.w3.org/2000/svg">
<rect width="1000" height="693.695" fill="#C4C4C4"/>
<g clip-path="url(#clip0)">
<path d="M629.63 240.481H370.371C367.815 240.481 365.741 242.548 365.741 245.106V448.59C365.741 451.147 367.815 453.214 370.371 453.214H629.63C632.186 453.214 634.26 451.147 634.26 448.59V245.106C634.26 242.548 632.186 240.481 629.63 240.481ZM625 443.965H375V249.73H625V443.965Z" fill="#979797"/>
<path d="M439.816 342.861C454.033 342.861 465.598 331.309 465.598 317.111C465.598 302.904 454.033 291.352 439.816 291.352C425.598 291.352 414.033 302.904 414.033 317.107C414.033 331.309 425.598 342.861 439.816 342.861ZM439.816 300.601C448.927 300.601 456.339 308.01 456.339 317.107C456.339 326.203 448.927 333.612 439.816 333.612C430.705 333.612 423.292 326.208 423.292 317.111C423.292 308.015 430.705 300.601 439.816 300.601Z" fill="#979797"/>
<path d="M398.148 425.467C399.232 425.467 400.324 425.087 401.204 424.315L476.727 357.896L524.421 405.534C526.232 407.343 529.157 407.343 530.968 405.534C532.778 403.726 532.778 400.803 530.968 398.995L508.713 376.765L551.218 330.268L603.352 378.009C605.236 379.734 608.167 379.604 609.894 377.722C611.62 375.84 611.495 372.912 609.607 371.187L554.051 320.316C553.144 319.488 551.935 319.077 550.718 319.105C549.491 319.16 548.333 319.701 547.505 320.608L502.162 370.216L480.204 348.281C478.472 346.556 475.704 346.469 473.87 348.078L395.088 417.369C393.167 419.057 392.982 421.98 394.671 423.899C395.588 424.939 396.866 425.467 398.148 425.467Z" fill="#979797"/>
</g>
<defs>
<clipPath id="clip0">
<rect width="268.518" height="268.229" fill="white" transform="translate(365.741 212.733)"/>
</clipPath>
</defs>
</svg>
